X: 20793
T: Johnny McIljohn's
R: reel
M: 4/4
K: Dmajor
DE|:FA (3AAA BAFA|BAFA d2 DE|FA (3AAA BAFA|BAFD EFDE|
FA (3AAA BAFA|BAFA d2 ED|FA (3AAA BAFA|1 BAFD EFDE:|2 BAFD EF D2||
|:f2 fe d2 dA|BAFA BAFA|f2 fe dfbf|afeg fede|
f2 fe d2 dA|BAFA BAFA|f2 fe dedB|1 ABAF D2 ag:|2 ABAG FDDE||

